X: 738
T: Old Dangerfield
C:Bill Monroe
B: jims roots
M:4/4
L:1/8
Q: 1/4=100
K:C
V:1 
%Q:478
AA |: "A"A2 GE DC A,G, | A,2 AA cA cB | A2 GE DC A,G, | "E"CEDC "A"A,2 AA |
A2 GE DC A,G, | A,2 AA cA cB | A2 GE DC A,G, |[1 "E"CEDC "A"A,2 AA:| [2 [1 "E"CEDC "A"A,2 DD|]
|: "A"A,CEG A2 A2 | "D"D^FAd dAdA | "A"A,CEG A2 A2 | "E"^F^G2 e e2 [A2e2] |
"A"A,CEG A2 A2 | "D"D^FAc cAcB | "A"AGED CA,A,C|[1 "E"CEDC "A"[A,2E2][A,2E2]:|[2 "E"CEDC "A"[A,2E2]e2|]
|: "A"eaaa aaaa | aaaa aaab | "E"e2 ee eeee | e2ee eg^fe |
"D"[d^f][df][df][df] [df][df][df][df] | ^ffgf edBd | "A"A2 AA- AAAA | A2 AA- AcBA |
"G"GGGG [B,G][B,G][B,G][B,G] | "D"[B,G]AcB AGEG | "A"[E2A2][EA][EA] [EA][EA][EA][EA] | [EA][EA][EA][EA] [EA][^FA] [A2F2] |
"D"D2DD DDDD | "E"DAA^F ECCB, | "A"A,2A,A, A,A,A,A, |[1 "A"A,2 e2 eaaa:|[2 "A"A,2 z6 |]
% abcbook-tune_id 6298c2797843076754b23eca


% abcbook-boost 0
% abcbook-tablature 
% abcbook-transpose 
% abcbook-lastupdated 1654178425842
% abcbook-soundfonts 
% abcbook-repeats 1


